images/ralphlauren.svg

<svg width="305" height="88" viewBox="0 0 305 88" fill="none" xmlns="http://www.w3.org/2000/svg">
<path d="M16 54.352V53.716H17.7001V34.8806H16V34.2324H24.2558C29.0258 34.2324 30.7014 36.5562 30.7014 39.088C30.7014 41.9011 28.5488 43.858 24.4515 44.1149L31.2029 53.7038H32.5972V54.3398H28.084L20.8801 44.1149H20.77V53.7038H22.9349V54.3398H16V54.352ZM20.77 43.6623H22.4456C25.8213 43.6623 27.4725 41.9745 27.4725 39.1002C27.4725 37.0577 26.4818 34.8806 23.3507 34.8806H20.7578V43.6623H20.77Z" fill="black"/>
<path d="M38.5045 54.352V53.716H40.1434L46.7236 34H48.5338L54.7837 53.716H55.9089V54.352H49.6101V53.716H51.7138L49.3899 46.2797H43.3968L40.9262 53.716H43.6537V54.352H38.5045ZM43.617 45.6437H49.2065L46.5035 37.1311H46.4423L43.617 45.6437Z" fill="black"/>
<path d="M69.0696 53.716H73.2647C75.1483 53.716 75.6864 53.3613 77.3865 46.2797H78.0103V54.352H64.2996V53.716H65.9996V34.8806H64.2996V34.2324H71.9071V34.8806H69.0696V53.716Z" fill="black"/>
<path d="M87.9049 54.352V53.716H89.605V34.8806H87.9049V34.2324H96.0506C100.564 34.2324 102.998 36.4462 102.998 39.4916C102.998 42.5493 100.735 44.5796 96.0751 44.5796H92.6627V53.7038H95.2801V54.3398H87.9049V54.352ZM92.6749 43.9559H95.3412C98.4112 43.9559 99.7688 42.9896 99.7688 39.5039C99.7688 36.7764 98.5579 34.8806 95.5981 34.8806H92.6749V43.9559Z" fill="black"/>
<path d="M116.317 44.2372V53.716H118.201V54.352H111.559V53.716H113.259V34.8806H111.559V34.2324H118.201V34.8806H116.317V43.6012H123.839V34.8806H121.968V34.2324H128.609V34.8806H126.909V53.716H128.609V54.352H121.968V53.716H123.839V44.2372H116.317Z" fill="black"/>
<path d="M157.266 53.716H161.473C163.344 53.716 163.882 53.3613 165.583 46.2797H166.206V54.352H152.496V53.716H154.196V34.8806H152.496V34.2324H160.103V34.8806H157.266V53.716Z" fill="black"/>
<path d="M173.948 54.352V53.716H175.599L182.18 34H183.99L190.24 53.716H191.377V54.352H185.078V53.716H187.182L184.858 46.2797H178.865L176.394 53.716H179.122V54.352H173.948ZM179.061 45.6437H184.65L181.947 37.1311H181.886L179.061 45.6437Z" fill="black"/>
<path d="M206.213 34.2324V34.8806H204.171V49.5086C204.171 53.0556 206.128 54.193 207.925 54.193C210.628 54.193 212.524 52.334 212.524 49.313V34.8806H209.968V34.2324H215.019V34.8806H213.319V49.3252C213.319 52.6887 211.13 54.8168 207.815 54.8168C203.217 54.8168 201.113 52.8354 201.113 48.8237V34.8806H199.401V34.2324H206.213Z" fill="black"/>
<path d="M223.899 54.352V53.716H225.599V34.8806H223.899V34.2324H232.155C236.925 34.2324 238.6 36.5562 238.6 39.088C238.6 41.9011 236.448 43.858 232.35 44.1149L239.102 53.7038H240.496V54.3398H235.983L228.767 44.1149H228.657V53.7038H230.809V54.3398H223.899V54.352ZM228.657 43.6623H230.332C233.708 43.6623 235.359 41.9745 235.359 39.1002C235.359 37.0577 234.368 34.8806 231.25 34.8806H228.669V43.6623H228.657Z" fill="black"/>
<path d="M248.043 54.352V53.716H249.755V34.8806H248.043V34.2324H262.463V40.6902H261.839C260.31 35.2598 259.858 34.8806 258.427 34.8806H252.813V43.6012H255.027C256.458 43.6012 257.13 42.6961 257.705 39.5895H258.329V48.2489H257.705C257.143 45.1423 256.458 44.2372 255.027 44.2372H252.813V53.716H257.803C259.821 53.716 260.42 52.9333 262.096 46.9157H262.72V54.352H248.043Z" fill="black"/>
<path d="M274.913 35.4677H274.852V53.7283H277.237V54.3643H272.186V53.7283H274.057V34.8928H272.186V34.2446H277.641L285.982 48.7748H286.044V34.8806H283.769V34.2324H288.71V34.8806H286.839V54.352H285.872L274.913 35.4677Z" fill="black"/>
</svg>

<svg width="270" height="30" xmlns="http://www.w3.org/2000/svg" xmlns:svg="http://www.w3.org/2000/svg" xmlns:xlink="http://www.w3.org/1999/xlink">
 <!-- Created with SVG-edit - https://github.com/SVG-Edit/svgedit-->
 <defs>
  <symbol height="50" id="svg_62" width="250" xmlns="http://www.w3.org/2000/svg" xmlns:svg="http://www.w3.org/2000/svg" xmlns:xlink="http://www.w3.org/1999/xlink">
   <!-- Created with SVG-edit - https://github.com/SVG-Edit/svgedit-->
   <defs>
    <symbol height="88" id="svg_50" viewBox="0 0 305 88" width="305" xmlns="http://www.w3.org/2000/svg">
     <path d="m16,54.35l0,-0.63l1.7,0l0,-18.84l-1.7,0l0,-0.65l8.26,0c4.77,0 6.44,2.33 6.44,4.86c0,2.81 -2.15,4.77 -6.25,5.02l6.75,9.59l1.4,0l0,0.64l-4.52,0l-7.2,-10.23l-0.11,0l0,9.59l2.16,0l0,0.64l-6.93,0l0,0.01zm4.77,-10.69l1.68,0c3.37,0 5.02,-1.69 5.02,-4.56c0,-2.04 -0.99,-4.22 -4.12,-4.22l-2.59,0l0,8.78l0.01,0z" fill="black" id="svg_61"/>
     <path d="m38.5,54.35l0,-0.63l1.64,0l6.58,-19.72l1.81,0l6.25,19.72l1.13,0l0,0.63l-6.3,0l0,-0.63l2.1,0l-2.32,-7.44l-5.99,0l-2.47,7.44l2.72,0l0,0.63l-5.15,0zm5.12,-8.71l5.59,0l-2.71,-8.51l-0.06,0l-2.82,8.51z" fill="black" id="svg_60"/>
     <path d="m69.07,53.72l4.19,0c1.89,0 2.43,-0.36 4.13,-7.44l0.62,0l0,8.07l-13.71,0l0,-0.63l1.7,0l0,-18.84l-1.7,0l0,-0.65l7.61,0l0,0.65l-2.84,0l0,18.84z" fill="black" id="svg_59"/>
     <path d="m87.9,54.35l0,-0.63l1.71,0l0,-18.84l-1.71,0l0,-0.65l8.15,0c4.51,0 6.95,2.22 6.95,5.26c0,3.06 -2.27,5.09 -6.92,5.09l-3.42,0l0,9.12l2.62,0l0,0.64l-7.38,0l0,0.01zm4.77,-10.39l2.67,0c3.07,0 4.43,-0.97 4.43,-4.46c0,-2.72 -1.21,-4.62 -4.17,-4.62l-2.93,0l0,9.08z" fill="black" id="svg_58"/>
     <path d="m116.32,44.24l0,9.48l1.88,0l0,0.63l-6.64,0l0,-0.63l1.7,0l0,-18.84l-1.7,0l0,-0.65l6.64,0l0,0.65l-1.88,0l0,8.72l7.52,0l0,-8.72l-1.87,0l0,-0.65l6.64,0l0,0.65l-1.7,0l0,18.84l1.7,0l0,0.63l-6.64,0l0,-0.63l1.87,0l0,-9.48l-7.52,0z" fill="black" id="svg_57"/>
     <path d="m157.27,53.72l4.2,0c1.87,0 2.41,-0.36 4.11,-7.44l0.63,0l0,8.07l-13.71,0l0,-0.63l1.7,0l0,-18.84l-1.7,0l0,-0.65l7.6,0l0,0.65l-2.83,0l0,18.84z" fill="black" id="svg_56"/>
     <path d="m173.95,54.35l0,-0.63l1.65,0l6.58,-19.72l1.81,0l6.25,19.72l1.14,0l0,0.63l-6.3,0l0,-0.63l2.1,0l-2.32,-7.44l-5.99,0l-2.48,7.44l2.73,0l0,0.63l-5.17,0zm5.11,-8.71l5.59,0l-2.7,-8.51l-0.06,0l-2.83,8.51z" fill="black" id="svg_55"/>
     <path d="m206.21,34.23l0,0.65l-2.04,0l0,14.63c0,3.55 1.96,4.68 3.76,4.68c2.7,0 4.59,-1.86 4.59,-4.88l0,-14.43l-2.55,0l0,-0.65l5.05,0l0,0.65l-1.7,0l0,14.45c0,3.36 -2.19,5.49 -5.51,5.49c-4.59,0 -6.7,-1.98 -6.7,-6l0,-13.94l-1.71,0l0,-0.65l6.81,0z" fill="black" id="svg_54"/>
     <path d="m223.9,54.35l0,-0.63l1.7,0l0,-18.84l-1.7,0l0,-0.65l8.26,0c4.77,0 6.44,2.33 6.44,4.86c0,2.81 -2.15,4.77 -6.25,5.02l6.75,9.59l1.4,0l0,0.64l-4.52,0l-7.21,-10.23l-0.11,0l0,9.59l2.15,0l0,0.64l-6.91,0l0,0.01zm4.76,-10.69l1.67,0c3.38,0 5.03,-1.69 5.03,-4.56c0,-2.04 -0.99,-4.22 -4.11,-4.22l-2.58,0l0,8.78l-0.01,0z" fill="black" id="svg_53"/>
     <path d="m248.04,54.35l0,-0.63l1.71,0l0,-18.84l-1.71,0l0,-0.65l14.42,0l0,6.46l-0.62,0c-1.53,-5.43 -1.98,-5.81 -3.41,-5.81l-5.62,0l0,8.72l2.22,0c1.43,0 2.1,-0.9 2.67,-4.01l0.63,0l0,8.66l-0.63,0c-0.56,-3.11 -1.24,-4.01 -2.67,-4.01l-2.22,0l0,9.48l4.99,0c2.02,0 2.62,-0.79 4.3,-6.8l0.62,0l0,7.43l-14.68,0z" fill="black" id="svg_52"/>
     <path d="m274.91,35.47l-0.06,0l0,18.26l2.39,0l0,0.63l-5.05,0l0,-0.63l1.87,0l0,-18.84l-1.87,0l0,-0.65l5.45,0l8.34,14.53l0.06,0l0,-13.89l-2.27,0l0,-0.65l4.94,0l0,0.65l-1.87,0l0,19.47l-0.97,0l-10.96,-18.88z" fill="black" id="svg_51"/>
    </symbol>
   </defs>
   <g class="layer">
    <title>Layer 1</title>
    <use id="svg_49" transform="matrix(0.875827 0 0 0.875827 1.88872 -12.8926)" x="-13.7" xlink:href="#svg_50" y="0"/>
   </g>
  </symbol>
 </defs>
 <g class="layer">
  <title>Layer 1</title>
  <use id="svg_63" transform="matrix(1.10672 0 0 1.10672 9.94787 -5.39071)" x="-11.04" xlink:href="#svg_62" y="-8.47"/>
 </g>
</svg>
